X: 18
M: 6/4
L: 1/8
K: D
d4A2 BcdcBA | d6 A4B2 | =c3dc2 B2G2E2 | =c6 E4Bc |\
d4A2 BcdcBA | d6 A4G2 | F2(D2F2) (E2C2)E2 | D6 D4 ||


